; generated by PrusaSlicer 2.2.0+ on 2020-12-12 at 16:31:25 UTC

; 

; external perimeters extrusion width = 0.45mm
; perimeters extrusion width = 0.45mm
; infill extrusion width = 0.45mm
; solid infill extrusion width = 0.45mm
; top infill extrusion width = 0.40mm
; support material extrusion width = 0.35mm
; first layer extrusion width = 0.42mm

; external perimeters extrusion width = 0.45mm
; perimeters extrusion width = 0.45mm
; infill extrusion width = 0.45mm
; solid infill extrusion width = 0.45mm
; top infill extrusion width = 0.40mm
; support material extrusion width = 0.35mm
; first layer extrusion width = 0.42mm

M73 P0 R141
M73 Q0 S142
M201 X1000 Y1000 Z200 E5000 ; sets maximum accelerations, mm/sec^2
M203 X200 Y200 Z12 E120 ; sets maximum feedrates, mm/sec
M204 P1250 R1250 T1250 ; sets acceleration (P, T) and retract acceleration (R), mm/sec^2
M205 X8.00 Y8.00 Z0.40 E4.50 ; sets the jerk limits, mm/sec
M205 S0 T0 ; sets the minimum extruding and travel feed rate, mm/sec
M107
M862.3 P "MK3S" ; printer model check
M862.1 P0.4 ; nozzle diameter check
M115 U3.9.1 ; tell printer latest fw version
G90 ; use absolute coordinates
M83 ; extruder relative mode
M104 S215 ; set extruder temp
M140 S60 ; set bed temp
M190 S60 ; wait for bed temp
M109 S215 ; wait for extruder temp
G28 W ; home all without mesh bed level
G80 ; mesh bed leveling
G1 Y-3.0 F1000.0 ; go outside print area
G92 E0.0
G1 X60.0 E9.0 F1000.0 ; intro line
M73 Q0 S142
M73 P0 R141
G1 X100.0 E12.5 F1000.0 ; intro line
G92 E0.0
M221 S95

; Don't change E values below. Excessive value can damage the printer.
M907 E430 ; set extruder motor current
G21 ; set units to millimeters
G90 ; use absolute coordinates
M83 ; use relative distances for extrusion
M900 K0.05 ; Filament gcode LA 1.5
M900 K30 ; Filament gcode LA 1.0
;BEFORE_LAYER_CHANGE
G92 E0.0
;0.25


G1 E-0.80000 F2100.00000
G1 Z0.600 F10800.000
;AFTER_LAYER_CHANGE
;0.25
G1 X48.163 Y40.040
G1 Z0.250
G1 E0.80000 F2100.00000
M204 S1000
G1 F1200.000
G1 X50.404 Y37.479 E0.12960
G1 X52.674 Y35.053 E0.12647
G1 X55.024 Y32.702 E0.12659
G1 X57.538 Y30.351 E0.13105
G1 X60.038 Y28.165 E0.12647
G1 X62.612 Y26.061 E0.12659
G1 X65.315 Y23.998 E0.12949
G1 X68.089 Y22.026 E0.12960
G1 X70.859 Y20.192 E0.12647
G1 X73.690 Y18.450 E0.12659
G1 X76.648 Y16.763 E0.12963
G1 X79.620 Y15.199 E0.12789
G1 X82.611 Y13.749 E0.12659
G1 X85.757 Y12.352 E0.13105
G1 X88.836 Y11.107 E0.12647
G1 X91.958 Y9.964 E0.12659
G1 X95.192 Y8.900 E0.12963
G1 X98.416 Y7.959 E0.12789
G1 X101.637 Y7.134 E0.12659
G1 X104.961 Y6.399 E0.12963
G1 X108.263 Y5.785 E0.12789
G1 X111.550 Y5.287 E0.12659
G1 X114.927 Y4.889 E0.12949
G1 X118.278 Y4.608 E0.12804
G1 X121.598 Y4.441 E0.12659
G1 X125.002 Y4.384 E0.12963
G1 X128.361 Y4.440 E0.12789
G1 X131.681 Y4.606 E0.12659
G1 X135.074 Y4.889 E0.12963
G1 X138.409 Y5.281 E0.12789
G1 X141.696 Y5.779 E0.12659
G1 X145.040 Y6.400 E0.12949
G1 X148.363 Y7.134 E0.12960
G1 X151.581 Y7.958 E0.12647
G1 X154.809 Y8.901 E0.12804
G1 X158.042 Y9.964 E0.12960
G1 X161.161 Y11.106 E0.12647
G1 X164.278 Y12.367 E0.12804
G1 X167.389 Y13.749 E0.12960
G1 X170.381 Y15.199 E0.12662
G1 X173.353 Y16.764 E0.12789
G1 X176.310 Y18.450 E0.12960
G1 X179.142 Y20.192 E0.12662
G1 X181.942 Y22.047 E0.12789
G1 X184.715 Y24.020 E0.12960
G1 X187.359 Y26.038 E0.12662
G1 X189.960 Y28.163 E0.12789
G1 X192.521 Y30.404 E0.12960
G1 X194.947 Y32.674 E0.12647
G1 X197.298 Y35.024 E0.12659
G1 X199.649 Y37.538 E0.13105
G1 X201.835 Y40.038 E0.12647
G1 X203.939 Y42.612 E0.12659
G1 X206.002 Y45.315 E0.12949
G1 X207.974 Y48.089 E0.12960
G1 X209.808 Y50.859 E0.12647
G1 X211.550 Y53.690 E0.12659
G1 X213.237 Y56.648 E0.12963
G1 X214.801 Y59.620 E0.12789
G1 X216.251 Y62.611 E0.12659
G1 X217.648 Y65.757 E0.13105
G1 X218.893 Y68.836 E0.12647
G1 X220.036 Y71.958 E0.12659
G1 X221.100 Y75.192 E0.12963
G1 X222.041 Y78.416 E0.12789
G1 X222.866 Y81.637 E0.12659
G1 X223.601 Y84.961 E0.12963
G1 X224.215 Y88.263 E0.12789
G1 X224.713 Y91.550 E0.12659
G1 X225.111 Y94.927 E0.12948
G1 X225.394 Y98.319 E0.12960
G1 X225.560 Y101.636 E0.12647
G1 X225.616 Y104.998 E0.12804
G1 X225.559 Y108.402 E0.12960
G1 X225.392 Y111.719 E0.12647
G1 X225.111 Y115.070 E0.12804
G1 X224.713 Y118.450 E0.12960
G1 X224.214 Y121.738 E0.12662
G1 X223.600 Y125.040 E0.12789
G1 X222.866 Y128.363 E0.12960
G1 X222.042 Y131.581 E0.12647
G1 X221.099 Y134.809 E0.12804
G1 X220.036 Y138.042 E0.12960
G1 X218.894 Y141.161 E0.12647
G1 X217.648 Y144.243 E0.12659
G1 X216.251 Y147.389 E0.13105
G1 X214.803 Y150.378 E0.12647
G1 X213.236 Y153.353 E0.12804
G1 X211.550 Y156.310 E0.12960
G1 X209.810 Y159.139 E0.12647
G1 X207.974 Y161.911 E0.12659
G1 X206.004 Y164.682 E0.12949
G1 X203.939 Y167.388 E0.12960
G1 X201.837 Y169.960 E0.12647
G1 X199.649 Y172.462 E0.12659
G1 X197.298 Y174.976 E0.13105
G1 X194.949 Y177.324 E0.12647
G1 X192.521 Y179.596 E0.12659
G1 X189.959 Y181.837 E0.12963
G1 X187.358 Y183.963 E0.12789
G1 X184.715 Y185.979 E0.12659
G1 X181.942 Y187.954 E0.12963
G1 X179.141 Y189.808 E0.12789
G1 X176.310 Y191.550 E0.12659
G1 X173.356 Y193.235 E0.12949
G1 X170.380 Y194.801 E0.12804
G1 X167.389 Y196.251 E0.12659
G1 X164.277 Y197.633 E0.12963
G1 X161.164 Y198.893 E0.12789
G1 X158.042 Y200.036 E0.12659
G1 X154.812 Y201.098 E0.12948
G1 X151.544 Y202.051 E0.12960
G1 X148.323 Y202.876 E0.12662
G1 X145.043 Y203.600 E0.12789
G1 X141.696 Y204.221 E0.12960
G1 X138.409 Y204.719 E0.12662
G1 X135.073 Y205.111 E0.12789
G1 X131.681 Y205.394 E0.12960
G1 X128.364 Y205.560 E0.12647
G1 X125.002 Y205.616 E0.12804
G1 X121.598 Y205.559 E0.12960
G1 X118.277 Y205.392 E0.12662
G1 X114.930 Y205.111 E0.12789
G1 X111.550 Y204.713 E0.12960
G1 X108.262 Y204.214 E0.12662
G1 X104.960 Y203.600 E0.12789
G1 X101.637 Y202.866 E0.12960
G1 X98.419 Y202.042 E0.12647
G1 X95.191 Y201.099 E0.12804
G1 X91.958 Y200.036 E0.12960
G1 X88.839 Y198.894 E0.12647
G1 X85.757 Y197.648 E0.12659
G1 X82.611 Y196.251 E0.13105
G1 X79.619 Y194.801 E0.12662
G1 X76.647 Y193.236 E0.12789
G1 X73.690 Y191.550 E0.12960
G1 X70.861 Y189.810 E0.12647
G1 X68.089 Y187.974 E0.12659
G1 X65.285 Y185.979 E0.13105
G1 X62.644 Y183.965 E0.12647
G1 X60.070 Y181.861 E0.12659
G1 X57.509 Y179.623 E0.12948
G1 X55.024 Y177.298 E0.12960
G1 X52.676 Y174.949 E0.12647
G1 X50.404 Y172.521 E0.12659
G1 X48.163 Y169.959 E0.12963
G1 X46.037 Y167.358 E0.12789
G1 X44.021 Y164.715 E0.12659
G1 X42.049 Y161.945 E0.12948
G1 X40.170 Y159.106 E0.12960
G1 X38.430 Y156.277 E0.12647
G1 X36.765 Y153.356 E0.12804
G1 X35.199 Y150.380 E0.12804
G1 X33.749 Y147.389 E0.12659
G1 X32.367 Y144.277 E0.12963
G1 X31.107 Y141.164 E0.12789
G1 X29.964 Y138.042 E0.12659
G1 X28.902 Y134.812 E0.12948
G1 X27.949 Y131.544 E0.12960
G1 X27.124 Y128.323 E0.12662
G1 X26.400 Y125.043 E0.12789
G1 X25.779 Y121.696 E0.12960
G1 X25.281 Y118.409 E0.12662
G1 X24.889 Y115.073 E0.12789
G1 X24.606 Y111.681 E0.12960
G1 X24.440 Y108.364 E0.12647
G1 X24.384 Y105.002 E0.12804
G1 X24.441 Y101.598 E0.12960
G1 X24.608 Y98.277 E0.12662
G1 X24.889 Y94.930 E0.12789
G1 X25.287 Y91.550 E0.12960
G1 X25.786 Y88.262 E0.12662
G1 X26.400 Y84.960 E0.12789
G1 X27.134 Y81.637 E0.12960
G1 X27.958 Y78.419 E0.12647
G1 X28.901 Y75.191 E0.12804
G1 X29.964 Y71.958 E0.12960
G1 X31.106 Y68.839 E0.12647
G1 X32.367 Y65.722 E0.12804
G1 X33.749 Y62.611 E0.12960
G1 X35.199 Y59.619 E0.12662
G1 X36.764 Y56.647 E0.12789
G1 X38.450 Y53.690 E0.12960
G1 X40.192 Y50.858 E0.12662
G1 X42.047 Y48.058 E0.12789
G1 X44.021 Y45.285 E0.12960
G1 X46.038 Y42.641 E0.12662
G1 X48.125 Y40.087 E0.12561
G1 F8640.000
G1 X50.291 Y37.609 E-0.76000
G1 E-0.04000 F2100.00000
G1 Z0.850 F10800.000
G1 X77.204 Y64.895
G1 Z0.250
G1 E0.80000 F2100.00000
G1 F1200.000
G1 X78.633 Y63.251 E0.08293
G1 X80.118 Y61.658 E0.08293
G1 X81.658 Y60.118 E0.08293
G1 X83.251 Y58.633 E0.08293
G1 X84.895 Y57.204 E0.08293
G1 X86.587 Y55.834 E0.08293
G1 X88.326 Y54.523 E0.08293
G1 X90.110 Y53.274 E0.08293
G1 X91.937 Y52.088 E0.08293
G1 X93.804 Y50.966 E0.08293
G1 X95.708 Y49.910 E0.08293
G1 X97.649 Y48.922 E0.08293
G1 X99.623 Y48.001 E0.08293
G1 X101.627 Y47.150 E0.08293
G1 X103.660 Y46.370 E0.08293
G1 X105.720 Y45.661 E0.08293
G1 X107.802 Y45.024 E0.08293
G1 X109.906 Y44.460 E0.08293
G1 X112.028 Y43.971 E0.08293
G1 X114.166 Y43.555 E0.08293
G1 X116.317 Y43.214 E0.08293
G1 X118.478 Y42.949 E0.08293
G1 X120.648 Y42.759 E0.08293
G1 X122.823 Y42.645 E0.08293
G1 X125.000 Y42.607 E0.08293
G1 X127.177 Y42.645 E0.08293
G1 X129.352 Y42.759 E0.08293
G1 X131.522 Y42.949 E0.08293
G1 X133.683 Y43.214 E0.08293
G1 X135.834 Y43.555 E0.08293
G1 X137.972 Y43.971 E0.08293
G1 X140.094 Y44.460 E0.08293
G1 X142.198 Y45.024 E0.08293
G1 X144.280 Y45.661 E0.08293
G1 X146.340 Y46.370 E0.08293
G1 X148.373 Y47.150 E0.08293
G1 X150.377 Y48.001 E0.08293
G1 X152.351 Y48.922 E0.08293
G1 X154.292 Y49.910 E0.08293
G1 X156.196 Y50.966 E0.08293
G1 X158.063 Y52.088 E0.08293
G1 X159.890 Y53.274 E0.08293
G1 X161.674 Y54.523 E0.08293
G1 X163.413 Y55.834 E0.08293
G1 X165.105 Y57.204 E0.08293
G1 X166.749 Y58.633 E0.08293
G1 X168.344 Y60.120 E0.08302
G1 X170.159 Y61.956 E0.09832
G1 X171.367 Y63.251 E0.06743
G1 X172.796 Y64.895 E0.08293
G1 X174.166 Y66.587 E0.08293
G1 X175.477 Y68.326 E0.08293
G1 X176.726 Y70.110 E0.08293
G1 X177.912 Y71.937 E0.08293
G1 X179.034 Y73.804 E0.08293
G1 X180.090 Y75.708 E0.08293
G1 X181.078 Y77.649 E0.08293
G1 X181.999 Y79.623 E0.08293
G1 X182.850 Y81.627 E0.08293
G1 X183.630 Y83.660 E0.08293
G1 X184.339 Y85.720 E0.08293
G1 X184.976 Y87.802 E0.08293
G1 X185.540 Y89.906 E0.08293
G1 X186.029 Y92.028 E0.08293
G1 X186.445 Y94.166 E0.08293
G1 X186.786 Y96.317 E0.08293
G1 X187.051 Y98.478 E0.08293
G1 X187.241 Y100.648 E0.08293
G1 X187.355 Y102.823 E0.08293
G1 X187.393 Y105.000 E0.08293
G1 X187.355 Y107.177 E0.08293
G1 X187.241 Y109.352 E0.08293
G1 X187.051 Y111.522 E0.08293
G1 X186.786 Y113.683 E0.08293
G1 X186.445 Y115.834 E0.08293
G1 X186.029 Y117.972 E0.08293
G1 X185.540 Y120.094 E0.08293
G1 X184.976 Y122.198 E0.08293
G1 X184.339 Y124.280 E0.08293
G1 X183.630 Y126.340 E0.08293
G1 X182.850 Y128.373 E0.08293
G1 X181.999 Y130.377 E0.08293
G1 X181.078 Y132.351 E0.08293
G1 X180.090 Y134.292 E0.08293
G1 X179.034 Y136.196 E0.08293
G1 X177.912 Y138.063 E0.08293
G1 X176.726 Y139.890 E0.08293
G1 X175.477 Y141.674 E0.08293
G1 X174.166 Y143.413 E0.08293
G1 X172.796 Y145.105 E0.08293
G1 X171.367 Y146.749 E0.08293
G1 X169.882 Y148.342 E0.08293
G1 X168.342 Y149.882 E0.08293
G1 X166.749 Y151.367 E0.08293
G1 X165.105 Y152.796 E0.08293
G1 X163.413 Y154.166 E0.08293
G1 X161.674 Y155.477 E0.08293
G1 X159.890 Y156.726 E0.08293
G1 X158.063 Y157.912 E0.08293
G1 X156.196 Y159.034 E0.08293
G1 X154.292 Y160.090 E0.08293
G1 X152.351 Y161.078 E0.08293
G1 X150.377 Y161.999 E0.08293
G1 X148.373 Y162.850 E0.08293
G1 X146.340 Y163.630 E0.08293
G1 X144.280 Y164.339 E0.08293
G1 X142.198 Y164.976 E0.08293
G1 X140.094 Y165.540 E0.08293
G1 X137.972 Y166.029 E0.08293
G1 X135.834 Y166.445 E0.08293
G1 X135.023 Y166.574 E0.03129
G1 X133.683 Y166.786 E0.05164
G1 X131.522 Y167.051 E0.08293
G1 X129.352 Y167.241 E0.08293
G1 X127.177 Y167.355 E0.08293
G1 X125.000 Y167.393 E0.08293
G1 X122.823 Y167.355 E0.08293
G1 X120.648 Y167.241 E0.08293
G1 X118.478 Y167.051 E0.08293
G1 X116.317 Y166.786 E0.08293
G1 X114.166 Y166.445 E0.08293
G1 X112.028 Y166.029 E0.08293
G1 X109.906 Y165.540 E0.08293
G1 X107.802 Y164.976 E0.08293
G1 X105.720 Y164.339 E0.08293
G1 X103.660 Y163.630 E0.08293
G1 X101.627 Y162.850 E0.08293
G1 X99.623 Y161.999 E0.08293
G1 X97.649 Y161.078 E0.08293
G1 X95.708 Y160.090 E0.08293
G1 X93.804 Y159.034 E0.08293
G1 X91.937 Y157.912 E0.08293
G1 X90.110 Y156.726 E0.08293
G1 X88.326 Y155.477 E0.08293
G1 X86.587 Y154.166 E0.08293
G1 X84.895 Y152.796 E0.08293
G1 X83.251 Y151.367 E0.08293
G1 X81.658 Y149.882 E0.08293
G1 X80.118 Y148.342 E0.08293
G1 X78.633 Y146.749 E0.08293
G1 X77.204 Y145.105 E0.08293
G1 X75.834 Y143.413 E0.08293
G1 X74.523 Y141.674 E0.08293
G1 X73.274 Y139.890 E0.08293
G1 X72.088 Y138.063 E0.08293
G1 X70.966 Y136.196 E0.08293
G1 X69.910 Y134.292 E0.08293
G1 X68.922 Y132.351 E0.08293
G1 X68.001 Y130.377 E0.08293
G1 X67.150 Y128.373 E0.08293
G1 X66.370 Y126.340 E0.08293
G1 X65.661 Y124.280 E0.08293
G1 X65.024 Y122.198 E0.08293
G1 X64.460 Y120.094 E0.08293
G1 X63.971 Y117.972 E0.08293
G1 X63.555 Y115.834 E0.08293
G1 X63.214 Y113.683 E0.08293
G1 X62.949 Y111.522 E0.08293
G1 X62.759 Y109.352 E0.08293
G1 X62.645 Y107.177 E0.08293
G1 X62.607 Y105.000 E0.08293
G1 X62.645 Y102.823 E0.08293
G1 X62.759 Y100.648 E0.08293
G1 X62.949 Y98.478 E0.08293
G1 X63.214 Y96.317 E0.08293
G1 X63.555 Y94.166 E0.08293
G1 X63.971 Y92.028 E0.08293
G1 X64.460 Y89.906 E0.08293
G1 X65.024 Y87.802 E0.08293
G1 X65.661 Y85.720 E0.08293
G1 X66.370 Y83.660 E0.08293
G1 X67.150 Y81.627 E0.08293
G1 X68.001 Y79.623 E0.08293
G1 X68.922 Y77.649 E0.08293
G1 X69.910 Y75.708 E0.08293
G1 X70.966 Y73.804 E0.08293
G1 X72.088 Y71.937 E0.08293
G1 X73.274 Y70.110 E0.08293
G1 X74.523 Y68.326 E0.08293
G1 X75.834 Y66.587 E0.08293
G1 X77.167 Y64.941 E0.08064
G1 X77.451 Y65.172 F10800.000
G1 F1200.000
G1 X78.905 Y63.496 E0.08448
G1 X80.382 Y61.913 E0.08244
G1 X81.913 Y60.382 E0.08244
G1 X83.496 Y58.905 E0.08244
G1 X85.130 Y57.485 E0.08244
G1 X86.813 Y56.122 E0.08244
G1 X88.542 Y54.820 E0.08244
G1 X90.315 Y53.578 E0.08244
G1 X92.131 Y52.399 E0.08244
G1 X93.987 Y51.284 E0.08244
G1 X95.880 Y50.234 E0.08244
G1 X97.809 Y49.251 E0.08244
G1 X99.772 Y48.336 E0.08244
G1 X101.764 Y47.490 E0.08244
G1 X103.786 Y46.714 E0.08244
G1 X105.833 Y46.009 E0.08244
G1 X107.903 Y45.376 E0.08244
G1 X109.994 Y44.816 E0.08244
G1 X112.104 Y44.329 E0.08244
G1 X114.229 Y43.916 E0.08244
G1 X116.368 Y43.577 E0.08244
G1 X118.516 Y43.313 E0.08244
G1 X120.673 Y43.125 E0.08244
G1 X122.835 Y43.011 E0.08244
G1 X125.000 Y42.974 E0.08244
G1 X127.165 Y43.011 E0.08244
G1 X129.327 Y43.125 E0.08244
G1 X131.484 Y43.313 E0.08244
G1 X133.632 Y43.577 E0.08244
G1 X135.771 Y43.916 E0.08244
G1 X137.896 Y44.329 E0.08244
G1 X140.006 Y44.816 E0.08244
G1 X142.097 Y45.376 E0.08244
G1 X144.167 Y46.009 E0.08244
G1 X146.214 Y46.714 E0.08244
G1 X148.236 Y47.490 E0.08244
G1 X150.228 Y48.336 E0.08244
G1 X152.191 Y49.251 E0.08244
G1 X154.120 Y50.234 E0.08244
G1 X156.013 Y51.284 E0.08244
G1 X157.869 Y52.399 E0.08244
G1 X159.685 Y53.578 E0.08244
G1 X161.458 Y54.820 E0.08244
G1 X163.187 Y56.122 E0.08244
M73 Q0 S141
G1 X164.870 Y57.485 E0.08244
G1 X166.504 Y58.905 E0.08244
M73 P0 R140
G1 X168.088 Y60.383 E0.08250
G1 X169.895 Y62.210 E0.09783
G1 X171.095 Y63.496 E0.06698
G1 X172.515 Y65.130 E0.08244
G1 X173.878 Y66.813 E0.08244
G1 X175.180 Y68.542 E0.08244
G1 X176.422 Y70.315 E0.08244
G1 X177.601 Y72.131 E0.08244
G1 X178.716 Y73.987 E0.08244
G1 X179.766 Y75.880 E0.08244
G1 X180.749 Y77.809 E0.08244
G1 X181.664 Y79.772 E0.08244
G1 X182.510 Y81.764 E0.08244
G1 X183.286 Y83.786 E0.08244
G1 X183.991 Y85.833 E0.08244
G1 X184.624 Y87.903 E0.08244
G1 X185.184 Y89.994 E0.08244
G1 X185.671 Y92.104 E0.08244
G1 X186.084 Y94.229 E0.08244
G1 X186.423 Y96.368 E0.08244
G1 X186.687 Y98.516 E0.08244
G1 X186.875 Y100.673 E0.08244
G1 X186.989 Y102.835 E0.08244
G1 X187.026 Y105.000 E0.08244
G1 X186.989 Y107.165 E0.08244
G1 X186.875 Y109.327 E0.08244
G1 X186.687 Y111.484 E0.08244
G1 X186.423 Y113.632 E0.08244
G1 X186.084 Y115.771 E0.08244
G1 X185.671 Y117.896 E0.08244
G1 X185.184 Y120.006 E0.08244
G1 X184.624 Y122.097 E0.08244
G1 X183.991 Y124.167 E0.08244
G1 X183.286 Y126.214 E0.08244
G1 X182.510 Y128.236 E0.08244
G1 X181.664 Y130.228 E0.08244
G1 X180.749 Y132.191 E0.08244
G1 X179.766 Y134.120 E0.08244
G1 X178.716 Y136.013 E0.08244
G1 X177.601 Y137.869 E0.08244
G1 X176.422 Y139.685 E0.08244
G1 X175.180 Y141.458 E0.08244
G1 X173.878 Y143.187 E0.08244
G1 X172.515 Y144.870 E0.08244
G1 X171.095 Y146.504 E0.08244
G1 X169.618 Y148.087 E0.08244
G1 X168.087 Y149.618 E0.08244
G1 X166.504 Y151.095 E0.08244
G1 X164.870 Y152.515 E0.08244
G1 X163.187 Y153.878 E0.08244
G1 X161.458 Y155.180 E0.08244
G1 X159.685 Y156.422 E0.08244
G1 X157.869 Y157.601 E0.08244
G1 X156.013 Y158.716 E0.08244
G1 X154.120 Y159.766 E0.08244
G1 X152.191 Y160.749 E0.08244
G1 X150.228 Y161.664 E0.08244
G1 X148.236 Y162.510 E0.08244
